X: 21813
T: Kings Of Kerry
R: slide
M: 12/8
K: Amajor
c3 cBA F2A E2A|F2A E2c B3 BAB|
c3 cBA F2A E3|1 e2c BcB A3 A2B:|2 e2c BcB A3 Ace||
a3 afe f3 e3|c3 cBA B3 Bce|
a3 afe f3 e3|cdc BcB A3 Ace|
a3 afe f3 e3|c3 cBA B3 BAB|
c3 cBA F2A E3|1 e2c BcB A3 A2B:|2 e2c BcB Ace a||

